assets/images/decor-banner3.svg

<svg width="626" height="348" viewBox="0 0 626 348" fill="none" xmlns="http://www.w3.org/2000/svg">
<path opacity="0.17" d="M305.3 42L0 348L138.5 344L439 42H305.3Z" fill="#FFB75E"/>
<path d="M477.231 85.8425L499.258 53.8953C500.561 52.0061 503.5 53.4405 502.813 55.6298L487.135 105.555C486.434 107.787 489.478 109.201 490.731 107.227L533.556 39.7862C534.81 37.8116 537.853 39.226 537.153 41.4575L510.532 126.23C509.82 128.497 512.951 129.893 514.161 127.847L563.34 44.729C564.596 42.6061 567.831 44.1945 566.919 46.4865L531.401 135.801C530.488 138.097 533.732 139.684 534.984 137.554L590.89 42.3901L553.785 122.823C552.78 125.001 555.761 126.78 557.201 124.861L590.293 80.7417C591.643 78.9428 594.475 80.3956 593.801 82.541L577.819 133.434C577.115 135.676 580.185 137.085 581.426 135.09L599.587 105.889C600.828 103.894 603.897 105.303 603.193 107.545L594.919 133.895" stroke="#DDDDDD" stroke-width="3" stroke-linecap="round"/>
</svg>

<svg width="626" height="348" fill="none" xmlns="http://www.w3.org/2000/svg"><path opacity=".17" d="M305.3 42 0 348l138.5-4L439 42H305.3Z" fill="#FFB75E"/><path d="m477.231 85.843 22.027-31.948c1.303-1.889 4.242-.455 3.555 1.735l-15.678 49.925c-.701 2.232 2.343 3.646 3.596 1.672l42.825-67.44c1.254-1.975 4.297-.561 3.597 1.67l-26.621 84.773c-.712 2.267 2.419 3.663 3.629 1.617l49.179-83.118c1.256-2.123 4.491-.535 3.579 1.758L531.401 135.8c-.913 2.296 2.331 3.883 3.583 1.753L590.89 42.39l-37.105 80.433c-1.005 2.178 1.976 3.957 3.416 2.038l33.092-44.12c1.35-1.798 4.182-.345 3.508 1.8l-15.982 50.893c-.704 2.242 2.366 3.651 3.607 1.656l18.161-29.201c1.241-1.995 4.31-.586 3.606 1.656l-8.274 26.35" stroke="#DDD" stroke-width="3" stroke-linecap="round"/></svg>
